presets/default_fuji.pp3
[Version]
AppVersion=5.5
Version=345

[Exposure]
Auto=false
Clip=0.02
Compensation=0
Brightness=0
Contrast=0
Saturation=0
Black=0
HighlightCompr=0
HighlightComprThreshold=0
ShadowCompr=50
HistogramMatching=false
CurveFromHistogramMatching=false
ClampOOG=true
CurveMode=FilmLike
CurveMode2=FilmLike
Curve=4;0;0;0.050000000000000003;0.019363999999999999;0.12;0.079612600000000006;0.218;0.245034;0.35520000000000002;0.52962799999999999;0.54727999999999999;0.79653200000000002;0.81619200000000003;0.97426100000000004;1;1;
Curve2=0;

[HLRecovery]
Enabled=false
Method=Blend

[Luminance Curve]
Enabled=true
Brightness=0
Contrast=0
Chromaticity=0
AvoidColorShift=false
RedAndSkinTonesProtection=0
LCredsk=true
LCurve=4;0;0.034523345454545461;0.206453;0.15595600000000001;0.82121200000000005;0.84848500000000004;1;1;
aCurve=0;
bCurve=0;
ccCurve=0;
chCurve=0;
lhCurve=0;
hhCurve=0;
LcCurve=0;
ClCurve=0;

[Sharpening]
Enabled=true
Contrast=20
Method=usm
Radius=0.5
Amount=200
Threshold=20;80;2000;1200;
OnlyEdges=false
EdgedetectionRadius=1.8999999999999999
EdgeTolerance=1800
HalocontrolEnabled=false
HalocontrolAmount=85
DeconvRadius=0.75
DeconvAmount=100
DeconvDamping=0
DeconvIterations=30

[Directional Pyramid Denoising]
Enabled=true
Enhance=false
Median=false
Luma=0
Ldetail=0
Chroma=9.6999999999999993
Method=Lab
LMethod=SLI
CMethod=MAN
C2Method=AUTO
SMethod=shal
MedMethod=soft
RGBMethod=soft
MethodMed=Lonly
Redchro=3.8999999999999999
Bluechro=-2.2000000000000002
Gamma=1.7
Passes=1
LCurve=1;0.050000000000000003;0.14999999999999999;0.34999999999999998;0.34999999999999998;0.55000000000000004;0.040000000000000001;0.34999999999999998;0.34999999999999998;
CCCurve=1;0.050000000000000003;0.5;0.34999999999999998;0.34999999999999998;0.34999999999999998;0.050000000000000003;0.34999999999999998;0.34999999999999998;

[Distortion]
Amount=0

[LensProfile]
LcMode=lfauto
LCPFile=
UseDistortion=true
UseVignette=true
UseCA=true
LFCameraMake=
LFCameraModel=
LFLens=

[CACorrection]
Red=0
Blue=0

[Vignetting Correction]
Amount=0
Radius=50
Strength=1
CenterX=0
CenterY=0

[RAW]
HotPixelFilter=true
DeadPixelFilter=true
HotDeadPixelThresh=100
