rawtherapee/pixlus-fuji/Portra-Curves.pp3
[Version]
AppVersion=4.2.1148
Version=326

[Exposure]
CurveMode=FilmLike
Curve=1;0;0;0.090196;0.078431;0.615686;0.678431;1;1;

[RGB Curves]
LumaMode=false
rCurve=1;0;0;0.270588;0.270588;0.835294;0.854902;1;1;
gCurve=1;0;0;0.203922;0.184314;0.741176;0.768627;1;1;
bCurve=1;0;0;0.160784;0.180392;0.905882;0.894118;1;1;

