rawtherapee/pixlus-fuji/Velvia-Curves.pp3
[Version]
AppVersion=4.2.1148
Version=326

[Exposure]
CurveMode=FilmLike
Curve=1;0;0;0.501961;0.462745;0.866667;0.843137;1;1;

[RGB Curves]
LumaMode=false
rCurve=1;0;0;0.160784;0.109804;0.717647;0.819608;1;1;
gCurve=1;0;0;0.098039;0.082353;0.372549;0.4;0.709804;0.815686;1;1;
bCurve=1;0;0;0.098039;0.082353;0.478431;0.6;0.647059;0.807843;1;1;

